images/facebook51.svg

<svg xmlns="http://www.w3.org/2000/svg" width="792" height="792" viewBox="-215 0 792 792" enable-background="new -215 0 792 792"><path fill="#fff" d="M181 0c-218.7 0-396 177.3-396 396s177.3 396 396 396 396-177.3 396-396-177.3-396-396-396zm106.7 243.7h-56.7c-28.3 0-34.8 18.8-34.8 38.6v38h87.3l-11.9 75.7h-75.4v228.6h-75.1v-228.6h-46.4v-75.9h46.4v-45.8c0-61.7 18.4-106.3 86.1-106.3h80.5v75.7z"/></svg>

<?xml version="1.0" encoding="utf-8"?>
<!-- Generator: Adobe Illustrator 18.1.1, SVG Export Plug-In . SVG Version: 6.00 Build 0)  -->
<!DOCTYPE svg PUBLIC "-//W3C//DTD SVG 1.1//EN" "http://www.w3.org/Graphics/SVG/1.1/DTD/svg11.dtd">
<svg version="1.1" id="Capa_1" xmlns="http://www.w3.org/2000/svg" xmlns:xlink="http://www.w3.org/1999/xlink" x="0px" y="0px"
	 width="792px" height="792px" viewBox="-215 0 792 792" enable-background="new -215 0 792 792" xml:space="preserve">
<path fill="#FFFFFF" d="M181,0C-37.7,0-215,177.3-215,396s177.3,396,396,396s396-177.3,396-396S399.7,0,181,0z M287.7,243.7H231
	c-28.3,0-34.8,18.8-34.8,38.6v38h87.3L271.6,396h-75.4v228.6h-75.1V396H74.7v-75.9h46.4v-45.8c0-61.7,18.4-106.3,86.1-106.3h80.5
	V243.7z"/>
</svg>
